X:1
T:Felice chi vi mira
T:Felice chi vi mira
T:Giovanni Ghizzolo
C:Giovanni Ghizzolo
%%score [ 1 2 ] { 3 | 4 }
L:1/8
Q:1/4=120
M:4/4
K:F
V:1 treble nm="Soprano" snm="S"
V:2 bass nm="Bass" snm="B"
V:3 treble nm="MusicXML Part"
V:4 bass 
V:1
"^Source: Madrigali et Arie---Libro primo---Venetia---A.Raverij.1609.""^Editor: André Vierendeels (07/05/07)\nContinuo:André Vierendeels" z2 A2 A4- | %1
w: Fe- li-|
 A2 A2 G2 F2 | E4 E2 E2 | F2 G2 A3 G | A2 B2 c4 | z2 G2 G4 | F8 :: z2 AA A2 GF | G4 G2 c2 | %9
w: * ce che vi|mi- ra, ma|piu fe- li- ce|chi per voi|so- spi-|ra.|Fe- li- cis- si- mo|po- i chi|
 z2 BA c2 z B | AG F4 z G | G8 |[M:2/4] F4 :: z2 G2 |[M:4/4] G3 G G2 ^F2 | G4 G2 Bc | d6 cB | c8 | %18
w: so- spi- ran- do|fa so- spi- rar|vo-|i|Ben'|heb- b'a- mi- ca|stel- la hi per|don- na si|bel-|
 B2 d2 d2 c2 | B3 B A2 c2- | c2 de"^b" d4 | c4 c2 B2 | A6 GF | G4 z2 c2 | F6 G2 | G8 | F8 :| %27
w: le puo far con-|ten- to'in un l'oc-|* chio'el de- si-|o, e si-|cu- re puo|dir quel|cor e|mi-|o.|
V:2
 z2 F,2 F,4- | F,2 F,2 E,2 D,2 | C,4 C,2 C,2 | D,2 E,2 F,3 E, | F,2 G,2 A,2 A,,2 | C,8 | F,,8 :: %7
w: Fe- li-|* ce che vi|mi- ra, ma|piu fe- li- ce|che per voi so-|spi-|ra.|
 z2 F,F, F,2 E,D, | C,4 C,4 | F,4 _E,D, F,2 | z _E,D,C, B,,4- | B,,2 z C, C,4 |[M:2/4] F,,4 :: %13
w: Fe- li- cis- si- mo|po- i|chi so- spi- ran-|do fa so- spi-|* rar vo-|i.|
 z2 C,2 |[M:4/4] C,3 C, C,2 A,,2 | G,,4 G,,4 | z2 G,A, B,4- | B,2 A,G, F,4 | B,,2 B,2 B,2 A,2 | %19
w: Ben'|heb- b'a- mi- ca|stel- la|chi per don-|* na si bel-|le puo far con-|
 G,3 G, F,4 | F,2 F,F,"^-natural" G,4 | %21
w: ten- to'in un|l'oc- chio'el de- si-|
"^Notes: original keys: Ut 1st, Fa 4rth\n            editorial accidentals above the staff" C,4 F,,2 G,,2 | %22
w: o, e si-|
 A,,4 B,,2 D,2 | C,4 A,,4 | B,,A,,B,,C, D,2 B,,2 | C,8 | F,,8 :| %27
w: cu- re puo|dir quel|cor _ _ _ _ e|_|o.|
V:3
 [FAc]8 | [FAc]8 | [EGc]8 | [DFA]4 [FAc]4 | [FAc]4 [EA]4 | [EGc]8 | [FAc]8 :: [FAc]8 | [EGc]8 | %9
 [FAc]4 [Gc]2 [DGB]2 | D_EFC [DFB]4 | [DG]4 [EGc]4 |[M:2/4] [FAc]4 :: z2 [EGc]2 | %14
[M:4/4] [EGc]6 [D^FA]2 | [DGB]8 | [Fd]4 [FBd]4 | B2 A2 [FAc]4 | [DFB]6 [FAc]2 | [DGB]4 [FAc]4 | %20
 [FAc]4 [DG=B]4 | [EGc]4 A2 G2 | [Ec]4 [DFB]4 | [EGc]4 [EA]4 | [DB]8 | F2 ED EF [EG]2 | [DFA]8 :| %27
V:4
 z2 F,2 F,4- | F,2 F,2 E,2 D,2 | C,4 C,2 C,2 | D,2 E,2 F,3 E, | F,2 G,2 A,2 A,,2 | C,8 | F,,8 :: %7
 z2 F,2 F,2 E,D, | C,4 C,4 | F,4 _E,D, G,2 | z _E,D,C, B,,4 | B,,2 z C, C,4 |[M:2/4] F,,4 :: %13
 z2 C,2 |[M:4/4] C,3 C, C,2 A,,2 | G,,4 G,,4 | z2 G,A, B,4- | B,2 A,G, F,4 | D,2 B,2 B,2 A,2 | %19
 G,3 G, F,4 | F,4 G,4 | C,4 F,,2 G,,2 | A,,4 B,,2 D,2 | A,,4 A,,4 | B,,A,,B,,C, D,2 B,,2 | %25
 [C,G,]8 | F,,8 :| %27

